assets/symbols/mulberry/calendar_month.svg

<svg height="850.394" viewBox="0 0 850.394 850.394" width="850.394" xmlns="http://www.w3.org/2000/svg"><path d="m696.88 111.76v119.33h-.22v-.44h-541.76v-118.89z" fill="#ff001c"/><g fill="#fff"><path d="m561.22 636.97h135.44v135.44h-135.44zm0-135.44h135.44v135.439h-135.44zm0-135.44h135.44v135.44h-135.44z"/><path d="m561.22 231.09h135.44v135h-135.44zm-135.44 405.88h135.44v135.44h-135.44zm0-135.44h135.44v135.439h-135.44zm0-135.44h135.44v135.44h-135.44z"/><path d="m425.78 231.09h135.44v135h-135.44zm-135.44 405.88h135.44v135.44h-135.44zm0-135.44h135.44v135.439h-135.44zm0-135.44h135.44v135.44h-135.44z"/><path d="m290.34 231.09h135.44v135h-135.44zm-135.44 405.88h135.44v135.44h-135.44zm0-135.44h135.44v135.439h-135.44z"/><path d="m154.9 366.09h135.44v135.44h-135.44z"/><path d="m154.9 231.09h135.44v135h-135.44z"/></g><g fill="none" stroke="#231f20"><path d="m154.9 230.65h541.76v541.76h-541.76v-541.32m0 405.88h541.76m-541.76-135.44h541.76m-541.76-135.44h541.76m-135.44-135.44v541.76m-135.44-541.76v541.76m-135.44-541.76v541.76" stroke-width="21"/><path d="m154.9 230.65v-118.89h541.98v119.33h-541.98z" stroke-width="21"/><path d="m176.79 82.73v21.22m48.77-21.22v21.22m49.94-21.13v21.21m48.77-21.05v21.21m49.94-20.88v21.21m51.57-21.06v21.21m48.78-21.21v21.21m49.93-21.13v21.21m48.77-21.04v21.21m49.94-20.88v21.21m52.12-22.42v21.21" stroke-linecap="round" stroke-linejoin="round" stroke-width="27.872"/></g><path d="m0 0h850.394v850.394h-850.394z" fill="none"/></svg>

<svg xmlns="http://www.w3.org/2000/svg" width="850.394" height="850.394" viewBox="0 0 850.394 850.394" overflow="visible"><path fill="#ff001c" d="M696.88 111.76v119.33h-.22v-.44H154.9V111.76z"/><path fill="#fff" d="M561.22 636.97h135.44v135.44H561.22zM561.22 501.53h135.44v135.439H561.22zM561.22 366.09h135.44v135.44H561.22z"/><path fill="#fff" d="M561.22 231.09h135.44v135H561.22zM425.78 636.97h135.44v135.44H425.78zM425.78 501.53h135.44v135.439H425.78zM425.78 366.09h135.44v135.44H425.78z"/><path fill="#fff" d="M425.78 231.09h135.44v135H425.78zM290.34 636.97h135.44v135.44H290.34zM290.34 501.53h135.44v135.439H290.34zM290.34 366.09h135.44v135.44H290.34z"/><path fill="#fff" d="M290.34 231.09h135.44v135H290.34zM154.9 636.97h135.44v135.44H154.9zM154.9 501.53h135.44v135.439H154.9z"/><path fill="#fff" d="M154.9 366.09h135.44v135.44H154.9z"/><path fill="#fff" d="M154.9 231.09h135.44v135H154.9z"/><g fill="none" stroke="#231f20"><path stroke-width="21" d="M154.9 230.65h541.76v541.76H154.9V231.09M154.9 636.97h541.76M154.9 501.53h541.76M154.9 366.09h541.76M561.22 230.65v541.76M425.78 230.65v541.76M290.34 230.65v541.76"/><path stroke-width="21" d="M154.9 230.65V111.76h541.98v119.33H154.9z"/><path stroke-width="27.872" stroke-linecap="round" stroke-linejoin="round" d="M176.79 82.73v21.22M225.56 82.73v21.22M275.5 82.82v21.21M324.27 82.98v21.21M374.21 83.31v21.21M425.78 83.46v21.21M474.56 83.46v21.21M524.49 83.54v21.21M573.26 83.71v21.21M623.2 84.04v21.21M675.32 82.83v21.21"/></g><path fill="none" d="M0 0h850.394v850.394H0z"/></svg>
